img/writing-icon.svg

<?xml version="1.0" encoding="UTF-8"?>
<svg id="Layer_1" xmlns="http://www.w3.org/2000/svg" version="1.1" viewBox="0 0 122.88 112.04">
  <!-- Generator: Adobe Illustrator 29.7.1, SVG Export Plug-In . SVG Version: 2.1.1 Build 8)  -->
  <defs>
    <style>
      .st0 {
        fill-rule: evenodd;
      }
    </style>
  </defs>
  <path class="st0" d="M109.28,19.61l12.21,9.88c1.61,1.31,1.86,3.67.56,5.29l-5.46,6.75-18.06-14.6,5.47-6.76c1.31-1.6,3.67-1.85,5.29-.56,0,0-.01,0-.01,0ZM21.07,30.81c-1.76,0-3.18-1.42-3.18-3.18s1.42-3.18,3.18-3.18h53.05c1.76,0,3.18,1.42,3.18,3.18s-1.42,3.18-3.18,3.18H21.07ZM9.49,0h76.22c5.23.02,9.47,4.26,9.49,9.49v5.63l-4.48,5.53c-.46.57-.86,1.19-1.18,1.85-.24.19-.48.4-.71.62v-13.63c0-1.72-1.4-3.12-3.12-3.13H9.49c-1.73,0-3.12,1.4-3.13,3.13v93.06c0,.83.34,1.62.92,2.21s1.38.92,2.21.92h76.22c1.72,0,3.12-1.4,3.12-3.12h0v-14.36l1.91-.81c1.7-.63,3.2-1.71,4.34-3.13l.12-.14v18.43c-.05,5.21-4.28,9.42-9.49,9.45H9.49c-5.22-.01-9.46-4.23-9.49-9.45V9.49C.02,4.26,4.26.02,9.49,0ZM21.07,87.6c-1.76-.1-3.11-1.6-3.01-3.36.09-1.62,1.39-2.92,3.01-3.01h35.12c-.28,2.11-.38,4.24-.3,6.37H21.07ZM21.07,68.67c-1.76-.1-3.11-1.6-3.01-3.36.09-1.62,1.39-2.92,3.01-3.01h38.15v.27l-1.05,6.1H21.07ZM21.07,49.74c-1.76,0-3.18-1.42-3.18-3.18s1.42-3.18,3.18-3.18h51.37l-5.11,6.36H21.07ZM87.25,78l-12.82,5.47c-9.35,3.47-8.93,5.43-8-3.85l2.81-16.22h0l26.56-33,18,14.6-26.53,33h-.02ZM72.31,65.89l11.86,9.59-8.42,3.6c-6.6,2.83-6.42,4.23-5.27-2.53,0,0,1.83-10.66,1.83-10.66Z"/>
</svg>

<svg id="Layer_1" data-name="Layer 1" xmlns="http://www.w3.org/2000/svg" viewBox="0 0 122.88 112.04"><defs><style>.cls-1{fill-rule:evenodd;}</style></defs><title>writing</title><path class="cls-1" d="M109.28,19.61l12.21,9.88a3.77,3.77,0,0,1,.56,5.29l-5.46,6.75L98.53,26.93,104,20.17a3.79,3.79,0,0,1,5.29-.56ZM21.07,30.81a3.18,3.18,0,0,1,0-6.36H74.12a3.18,3.18,0,0,1,0,6.36ZM9.49,0H85.71A9.53,9.53,0,0,1,95.2,9.49v5.63l-4.48,5.53a9.81,9.81,0,0,0-1.18,1.85c-.24.19-.48.4-.71.62V9.49a3.14,3.14,0,0,0-3.12-3.13H9.49A3.14,3.14,0,0,0,6.36,9.49v93.06a3.16,3.16,0,0,0,.92,2.21,3.11,3.11,0,0,0,2.21.92H85.71a3.12,3.12,0,0,0,3.12-3.13V88.2l1.91-.81a10,10,0,0,0,4.34-3.13l.12-.14v18.43A9.54,9.54,0,0,1,85.71,112H9.49A9.51,9.51,0,0,1,0,102.55V9.49A9.53,9.53,0,0,1,9.49,0ZM21.07,87.6a3.19,3.19,0,0,1,0-6.37H56.19a37.1,37.1,0,0,0-.3,6.37Zm0-18.93a3.19,3.19,0,0,1,0-6.37H59.22l0,.27-1.05,6.1Zm0-18.93a3.18,3.18,0,0,1,0-6.36H72.44l-5.11,6.36ZM87.25,78,74.43,83.47c-9.35,3.47-8.93,5.43-8-3.85L69.24,63.4h0l0,0,26.56-33,18,14.6L87.27,78ZM72.31,65.89l11.86,9.59-8.42,3.6c-6.6,2.83-6.42,4.23-5.27-2.53l1.83-10.66Z"/></svg>
